X:18
T:Maid of Ardagh, The
T:Sliabh Mhachaire
T:Johnny O'Leary's
R:polka
H:See also #104
Z:id:hn-polka-18
M:2/4
L:1/8
K:D
FA/A/ BA|de f2|fe/f/ gc|ed BA|FA/A/ BA|de f2|fe/f/ gc|ed d2:|
|:ef/e/ ce|fe a2|ef/e/ ce|fe c/B/A|ef/e/ ce|fe a2|ef/e/ dB|BA A2:|
<end>
<start>
